X:1
T:Title
%%score 1 { 2 | 3 }
L:1/8
Q:1/4=90
M:4/4
K:Eb
V:1 treble nm="Grand Piano, Soprano"
V:2 treble nm="Choir Pad, Marching on to Glory"
V:3 bass 
V:1
 [EG][FA][GB][_G=A] [=GB][_Ac][GB][FA] | [EG][GB][Ac][Ae] [Ad][Ac] [GB]2 | GFEF GA B2 | %3
w: By~A.~J.~Robertson * * * * * * *|||
 [Ec]2 [EB]2 [EG]2 [DF]2 | [EG][FA][GB][_G=A] [=GB][_Ac][GB][FA] | %5
w: ||
 [EG][GB][Ac][Ae] [Ad][Ac] [GB]2 | GFEF GA B2 | [Ge]2 [EG]2 [DF]2 E2 | %8
w: |||
 [B,B][B,B][Cc][=B,=B] [Cc][Dd] [Ee]2 | [EG]2 [FA]2 [EG]2 [DF]2 | %10
w: ||
 [B,B][B,B][Cc][=B,=B] [Cc][Dd] [Ee]2 | [GB]2 [Fd]2 [Ec]2 [DB]2 | %12
w: ||
 [EG][FA][GB][_G=A] [=GB][_Ac][GB][FA] | [EG][GB][Ac][Ae] [Ad][Ac] [GB]2 | GFEF GA B2 | %15
w: |||
 [Ge]2 [EG]2 [DF]2 E2- | E4 z4 |] %17
w: ||
V:2
 B,B,EE EEEB, | B,EEC[K:bass] B,B, B,2 | G,F,E,F, G,A, B,2 | E2 E2 B,2 B,2 | %4
 B,B,[K:treble]EE EEEB, | B,EEC[K:bass] B,B, B,2 | G,F,E,F, G,A, B,2 | B,2 B,2 A,2 G,2 | %8
 B,B,[K:treble]C=B, CD E2 | =B,2 _B,2 B,2 B,2 | B,B,[K:treble]C=B, CD E2 | %11
 E2[K:bass] B,2 =A,2 B,2 | B,B,[K:treble]EE EEEB, | B,EEC[K:bass] B,B, B,2 | G,F,E,F, G,A, B,2 | %15
 B,2 B,2 A,2 G,2- | G,4 z4 |] %17
V:3
 E,E,E,E, E,E,E,E, | E,E,A,,B,, C,D, E,2 | z8 | A,2 G,2 E,2 B,,2 | E,E,E,E, E,E,E,E, | %5
 E,E,A,,B,, C,D, E,2 | z8 | E,2 B,,2 B,,2 E,2 | B,,B,,C,=B,, C,D, E,2 | E,2 D,2 E,2 B,,2 | %10
 B,,B,,C,=B,, C,D, E,2 | E,2 F,2 F,2 B,,2 | E,E,E,E, E,E,E,E, | E,E,A,,B,, C,D, E,2 | z8 | %15
 E,2 B,,2 B,,2 E,2- | E,4 z4 |] %17

